!!!OTL: Der Nachtj&auml;ger (Band 1), S. 186
!!!id: P0838
**kern
*clefG2
*k[b-]
*F:
{4c
=1
4c
4f
4f
4a
=2
4a
8g
8f
4g}
=3
{4a
=4
4.g
8a
4g
4f
=5
4e
4d
4c}
=6
{8f
8g
=7
4a
4a
4a
8g
8cc
=8
4b-
8a
8g
4g}
=9
{4a
=10
8cc
8b-
4cc
4b-
4g
=11
2f}
4r
==
*-
!!!minrhy: 8
!!!meters: 4/4 ]  ZZ[4
!!!cut: Der Nachtj&auml;ger (Band 1), S. 186
!!!reg: Lothringen
!!!trd: PINCK, Louis: Verklingende Weisen, Bd 1, Metz 1928
!!!rhy1: X_  X_X_X_X_  X_XXX_
!!!rhy2: X_  X_.XX_X_  X_X_X_
!!!key: P0838  08  F 4/4 ]  ZZ[4
!!!mod: HEPTATONIK IONISCH]  AMBITUS[8
!!!kad: 2-521
!!!akz: -5132_22-7-5_3342_541_
!!!fot: 'a__b__c__d__
!!!for: 'a__b__c__d__
!!!fok: '/__\__^a_^d_
!! PHRAS[AUFTAKTIG]
!!!fkt: Jagen
!! LOTH VKL
!! PR[37] 2K[0] 2G[14] 3K[4] 3G[4] 4A[6] 4Ü[0] 5A[0] 6K[0] 6G[0]
!! 7K[0] 7G[0] 8A[0] MEHR[0] SI[27] ABS[51] SR[14] SP[14]
!! ST[12] 2k[6] 2g[24] 3k[2] 3g[4] 4d[0] 4ü[0] 5d[0] 6k[0] 6g[0]
!! 7k[0] 7g[0] 8d[0] mehr[0] si[35] dm[-8] sr[29] sp[6]
!! 1F[2] 2F[33] 3F[56] 4F[4] LF[0] 2P[2] 3P[4] 4P[0] TRI[0] DF[6] AB[55]
!! TF[0] U3K[0] U3[0] U4[0] U4Ü[0] U5[8] U6K[0] U6[10] U7K[0] U7[2]
!! N1[25] N2K[0] N2[25] N3K[0] N3[17] N4[6] N4Ü[0] N5[8] N6K[0] N6[0]
!!!n7k: 0] N7[0] O1[0] O2K[0] O2[0] O3K[0] O3[0] HÖ[0
!!!RNB: symbol: &auml;      = a umlaut  (UTF-8: Å„)
